client/src/assets/images/icon-danger-signs-blue.svg

<svg fill="none" height="122" viewBox="0 0 114 122" width="114" xmlns="http://www.w3.org/2000/svg"><g fill="#06b9ff"><path d="m88.9332 75.397-23.784-40.9749c-.7824-1.661-1.9433-3.0843-3.3754-4.1383-1.4321-1.0541-3.0893-1.7051-4.8186-1.8927l-.1822-.019-.1869.019c-1.7292.1876-3.3863.8384-4.8184 1.8923s-2.5929 2.4769-3.3755 4.1377l-23.784 40.977c-2.194 3.778-2.6632 7.463-1.2868 10.11s4.5488 4.164 8.7061 4.164h49.4816c4.1572 0 7.3306-1.518 8.706-4.164 1.3755-2.646.9121-6.3321-1.2819-10.1111zm-.3458 9.1391c-1.0362 1.993-3.6116 3.136-7.0736 3.136h-49.4816c-3.4574 0-6.0373-1.143-7.0736-3.136s-.5831-4.939 1.2418-8.083l23.8279-41.058c.5128-1.4705 1.4332-2.7381 2.638-3.6331s2.6364-1.3747 4.103-1.3747 2.8981.4797 4.1029 1.3747 2.1252 2.1626 2.638 3.6331l23.8279 41.058c1.8324 3.144 2.2847 6.094 1.2484 8.083z"/><path d="m56.7731 67.0717c.3296-.0002.6456-.1405.8788-.3898.2331-.2494.3644-.5875.3649-.9402v-18.176c.0045-.1778-.0242-.3548-.0847-.5205-.0604-.1657-.1512-.3167-.2671-.4442s-.2546-.2288-.4077-.298c-.1531-.0691-.3175-.1048-.4837-.1048s-.3308.0357-.4839.1048c-.1531.0692-.2917.1705-.4076.298s-.2067.2785-.2671.4442-.0893.3427-.0847.5205v18.181c.0017.3517.1334.6884.3662.9366.2328.2483.548.3879.8766.3884z"/><path d="m56.7731 71.523c-.3918.0002-.7747.1246-1.1003.3576-.3256.2331-.5794.5642-.7292.9515-.1499.3874-.189.8135-.1125 1.2247.0765.4111.2652.7888.5421 1.0853.277.2964.6299.4983 1.0141.5801s.7824.0399 1.1443-.1204c.3619-.1604.6714-.4319.8891-.7804.2178-.3485.3341-.7582.3342-1.1774.0059-.2803-.0414-.5589-.1389-.8191-.0975-.2601-.2432-.4965-.4284-.6947s-.4062-.3542-.6493-.4586-.5034-.1549-.7652-.1486z"/></g></svg>

<svg width="114" height="122" viewBox="0 0 114 122" fill="none" xmlns="http://www.w3.org/2000/svg">
<path d="M88.9332 75.397L65.1492 34.4221C64.3668 32.7611 63.2059 31.3378 61.7738 30.2838C60.3417 29.2297 58.6845 28.5787 56.9552 28.3911L56.773 28.3721L56.5861 28.3911C54.8569 28.5787 53.1998 29.2295 51.7677 30.2834C50.3356 31.3373 49.1748 32.7603 48.3922 34.4211L24.6082 75.3981C22.4142 79.1761 21.945 82.8611 23.3214 85.5081C24.6978 88.1551 27.8702 89.6721 32.0275 89.6721H81.5091C85.6663 89.6721 88.8397 88.1541 90.2151 85.5081C91.5906 82.8621 91.1272 79.176 88.9332 75.397ZM88.5874 84.5361C87.5512 86.5291 84.9758 87.6721 81.5138 87.6721H32.0322C28.5748 87.6721 25.9949 86.5291 24.9586 84.5361C23.9223 82.5431 24.3755 79.5971 26.2004 76.4531L50.0283 35.3951C50.5411 33.9246 51.4615 32.657 52.6663 31.762C53.8711 30.867 55.3027 30.3873 56.7693 30.3873C58.2359 30.3873 59.6674 30.867 60.8722 31.762C62.077 32.657 62.9974 33.9246 63.5102 35.3951L87.3381 76.4531C89.1705 79.5971 89.6228 82.5471 88.5865 84.5361H88.5874Z" fill="#06B9FF"/>
<path d="M56.7731 67.0717C57.1027 67.0715 57.4187 66.9312 57.6519 66.6819C57.885 66.4325 58.0163 66.0944 58.0168 65.7417V47.5657C58.0213 47.3879 57.9926 47.2109 57.9321 47.0452C57.8717 46.8795 57.7809 46.7285 57.665 46.601C57.5491 46.4735 57.4104 46.3722 57.2573 46.303C57.1042 46.2339 56.9398 46.1982 56.7736 46.1982C56.6074 46.1982 56.4428 46.2339 56.2897 46.303C56.1366 46.3722 55.998 46.4735 55.8821 46.601C55.7662 46.7285 55.6754 46.8795 55.615 47.0452C55.5546 47.2109 55.5257 47.3879 55.5303 47.5657V65.7467C55.532 66.0984 55.6637 66.4351 55.8965 66.6833C56.1293 66.9316 56.4445 67.0712 56.7731 67.0717Z" fill="#06B9FF"/>
<path d="M56.7731 71.523C56.3813 71.5232 55.9984 71.6476 55.6728 71.8806C55.3472 72.1137 55.0934 72.4448 54.9436 72.8321C54.7937 73.2195 54.7546 73.6456 54.8311 74.0568C54.9076 74.4679 55.0963 74.8456 55.3732 75.1421C55.6502 75.4385 56.0031 75.6404 56.3873 75.7222C56.7715 75.804 57.1697 75.7621 57.5316 75.6018C57.8935 75.4414 58.203 75.1699 58.4207 74.8214C58.6385 74.4729 58.7548 74.0632 58.7549 73.644C58.7608 73.3637 58.7135 73.0851 58.616 72.8249C58.5185 72.5648 58.3728 72.3284 58.1876 72.1302C58.0024 71.932 57.7814 71.776 57.5383 71.6716C57.2952 71.5672 57.0349 71.5167 56.7731 71.523Z" fill="#06B9FF"/>
</svg>
